Newaita-dark/actions/16/filename-discnumber-amarok.svg

<svg height="16" viewBox="0 0 16 16" width="16" xmlns="http://www.w3.org/2000/svg"><g fill="#e0e0e0"><path d="m5.292969 14.347656v-12.570312c0-.179688-.148438-.328125-.332031-.328125h-.660157c-.183593 0-.332031.148437-.332031.328125v12.570312c0 .183594.148438.332032.332031.332032h.660157c.183593 0 .332031-.148438.332031-.332032zm0 0"/><path d="m11.90625 14.347656v-12.570312c0-.179688-.148438-.328125-.328125-.328125h-.664063c-.179687 0-.328124.148437-.328124.328125v12.570312c0 .183594.148437.332032.328124.332032h.664063c.179687 0 .328125-.148438.328125-.332032zm0 0"/><path d="m1.652344 5.417969h12.570312c.183594 0 .332032-.148438.332032-.332031v-.660157c0-.183593-.148438-.332031-.332032-.332031h-12.570312c-.179688 0-.328125.148438-.328125.332031v.660157c0 .183593.148437.332031.328125.332031zm0 0"/><path d="m1.652344 12.03125h12.570312c.183594 0 .332032-.148438.332032-.328125v-.664063c0-.179687-.148438-.328124-.332032-.328124h-12.570312c-.179688 0-.328125.148437-.328125.328124v.664063c0 .179687.148437.328125.328125.328125zm0 0"/></g></svg>

<?xml version="1.0" encoding="UTF-8"?>
<svg xmlns="http://www.w3.org/2000/svg" xmlns:xlink="http://www.w3.org/1999/xlink" width="16px" height="16px" viewBox="0 0 16 16" version="1.1">
<g id="surface1">
<path style=" stroke:none;fill-rule:nonzero;fill:rgb(87.843138%,87.843138%,87.843138%);fill-opacity:1;" d="M 5.292969 14.347656 L 5.292969 1.777344 C 5.292969 1.597656 5.144531 1.449219 4.960938 1.449219 L 4.300781 1.449219 C 4.117188 1.449219 3.96875 1.597656 3.96875 1.777344 L 3.96875 14.347656 C 3.96875 14.53125 4.117188 14.679688 4.300781 14.679688 L 4.960938 14.679688 C 5.144531 14.679688 5.292969 14.53125 5.292969 14.347656 Z M 5.292969 14.347656 "/>
<path style=" stroke:none;fill-rule:nonzero;fill:rgb(87.843138%,87.843138%,87.843138%);fill-opacity:1;" d="M 11.90625 14.347656 L 11.90625 1.777344 C 11.90625 1.597656 11.757812 1.449219 11.578125 1.449219 L 10.914062 1.449219 C 10.734375 1.449219 10.585938 1.597656 10.585938 1.777344 L 10.585938 14.347656 C 10.585938 14.53125 10.734375 14.679688 10.914062 14.679688 L 11.578125 14.679688 C 11.757812 14.679688 11.90625 14.53125 11.90625 14.347656 Z M 11.90625 14.347656 "/>
<path style=" stroke:none;fill-rule:nonzero;fill:rgb(87.843138%,87.843138%,87.843138%);fill-opacity:1;" d="M 1.652344 5.417969 L 14.222656 5.417969 C 14.40625 5.417969 14.554688 5.269531 14.554688 5.085938 L 14.554688 4.425781 C 14.554688 4.242188 14.40625 4.09375 14.222656 4.09375 L 1.652344 4.09375 C 1.472656 4.09375 1.324219 4.242188 1.324219 4.425781 L 1.324219 5.085938 C 1.324219 5.269531 1.472656 5.417969 1.652344 5.417969 Z M 1.652344 5.417969 "/>
<path style=" stroke:none;fill-rule:nonzero;fill:rgb(87.843138%,87.843138%,87.843138%);fill-opacity:1;" d="M 1.652344 12.03125 L 14.222656 12.03125 C 14.40625 12.03125 14.554688 11.882812 14.554688 11.703125 L 14.554688 11.039062 C 14.554688 10.859375 14.40625 10.710938 14.222656 10.710938 L 1.652344 10.710938 C 1.472656 10.710938 1.324219 10.859375 1.324219 11.039062 L 1.324219 11.703125 C 1.324219 11.882812 1.472656 12.03125 1.652344 12.03125 Z M 1.652344 12.03125 "/>
</g>
</svg>
